T: Whistle Ower The Lave O't
M: 4/4
L: 1/8
K: Gmaj
G>DE>G BA B2 | d>eB>g A>G E2 | G>DE>G B>AB>g | G/G/G B>G A2 G2 :||: de/f/ g>d e>d B2 | d>eB>g A>G E2 |1 de/f/ g>d edeg | G>GBG A2 G2 :|2 gbeg deBg | G>GBG A2 G2 ||GDE>G BA B2 | d>eBA/G/ AG E2 | G/A/G/D/ EE/G/ BB/A/ Bg | GG/A/ BG A2 G2 :||: de/f/ g>f e/f/e/d/ Bg | GG/A/ Bg A>G ED |1 d2 g>f  (3efd Bg | G>A B/A/G AG G2 :|2 gbeg dgBg | G>ABG A2 G2 ||
